src/images/governance-active.svg

<svg height="17" viewBox="0 0 17 17" width="17" xmlns="http://www.w3.org/2000/svg"><g fill="none" stroke="#2741b4" stroke-width=".9" transform="translate(1 1)"><path d="m14.2322115 5.92542302c.4480859.07520368.7739666.46062252.7676996.91497807v1.31919782c0 .45435555-.3258806.83977439-.7739665.91497807l-1.0528453.17547524c-.1065379.3509505-.2506774.69250053-.4230182 1.02151658l.6204267.8711093c.2632113.3697514.2193428.8742427-.100271 1.1938584l-.9337734.9337789c-.1754742.1754753-.4073509.2726134-.6548948.2726134-.194275 0-.3822831-.0595363-.5389565-.1723418l-.8679706-.6204303c-.32588072.1723417-.66742872.3133486-1.0215106.4230207l-.17860768 1.0528514c-.07520323.4480886-.46061979.7739712-.91497264.7739712h-1.32232348c-.45435286 0-.83976942-.3258826-.91497265-.7739712l-.17547421-1.0528514c-.341548-.1065386-.67369561-.2412785-.99017587-.4073533l-.8805045.6266973c-.1566734.1128055-.34154801.1723418-.53582302.1723418-.24754397 0-.4794206-.0971381-.65489481-.2726134l-.93377345-.9337789c-.3227472-.3196157-.36348228-.824107-.10027097-1.1938584l.61729319-.8585753c-.17547421-.32588261-.31961374-.66743265-.42928512-1.01838314l-1.0653791-.18174222c-.44808592-.07520367-.77396659-.46062251-.77396659-.91497806v-1.31919783c0-.45435554.32588067-.83977439.77396659-.91497806l1.04031136-.17547525c.10653791-.35408398.2444105-.69563401.41675124-1.02465009l-.62669359-.88050972c-.26321131-.36975141-.21934276-.87424274.10027097-1.19385836l.93690692-.93377899c.17234074-.17547524.40735084-.27261333.65489481-.27261333.19427501 0 .38228309.05953625.53895649.17234176l.86170369.62043033c.32588067-.17547524.66742867-.31961562 1.01837708-.42928765l.18174115-1.06538542c.07520323-.44808857.46061979-.77397117.91497264-.77397117h1.31919001c.45435286 0 .83976942.3258826.91497265.77397117l.17547421 1.04031753c.36661575.10967203.72069763.25694589 1.05911218.43555463l.8711041-.62043034c.1566734-.11280551.341548-.17234176.535823-.17234176.247544 0 .4794206.09713809.6548948.27261333l.9337735.93377899c.3227472.31961562.3634822.82410695.1002709 1.19385836l-.6204266.86797577c.1723407.3258826.3133468.66743263.4230182 1.02151661z"/><path d="m7.65096795 3.97788792c1.88996684 0 3.42515045 1.53518359 3.42515045 3.42515044 0 1.88996684-1.53518361 3.42515044-3.42515045 3.42515044s-3.42515044-1.5351836-3.42515044-3.42515044c0-1.88996685 1.5351836-3.42515044 3.42515044-3.42515044z"/></g></svg>

<?xml version="1.0" encoding="UTF-8"?>
<svg width="17px" height="17px" viewBox="0 0 17 17" version="1.1" xmlns="http://www.w3.org/2000/svg" xmlns:xlink="http://www.w3.org/1999/xlink">
    <!-- Generator: Sketch 54.1 (76490) - https://sketchapp.com -->
    <title>settings</title>
    <desc>Created with Sketch.</desc>
    <g id="Symbols" stroke="none" stroke-width="1" fill="none" fill-rule="evenodd">
        <g id="side-bar-detail-after" transform="translate(-40.000000, -432.000000)" fill-rule="nonzero" stroke="#2741B4" stroke-width="0.9">
            <g id="Group-9" transform="translate(41.000000, 432.000000)">
                <g id="Group-3" transform="translate(0.000000, 1.000000)">
                    <g id="settings">
                        <path d="M14.2322115,5.92542302 C14.6802974,6.0006267 15.0061781,6.38604554 14.9999111,6.84040109 L14.9999111,8.15959891 C14.9999111,8.61395446 14.6740305,8.9993733 14.2259446,9.07457698 L13.1730993,9.25005222 C13.0665614,9.60100272 12.9224219,9.94255275 12.7500811,10.2715688 L13.3705078,11.1426781 C13.6337191,11.5124295 13.5898506,12.0169208 13.2702368,12.3365365 L12.3364634,13.2703154 C12.1609892,13.4457907 11.9291125,13.5429288 11.6815686,13.5429288 C11.4872936,13.5429288 11.2992855,13.4833925 11.1426121,13.370587 L10.2746415,12.7501567 C9.94876078,12.9224984 9.60721278,13.0635053 9.2531309,13.1731774 L9.07452322,14.2260288 C8.99931999,14.6741174 8.61390343,15 8.15955058,15 L6.8372271,15 C6.38287424,15 5.99745768,14.6741174 5.92225445,14.2260288 L5.74678024,13.1731774 C5.40523224,13.0666388 5.07308463,12.9318989 4.75660437,12.7658241 L3.87609987,13.3925214 C3.71942647,13.5053269 3.53455186,13.5648632 3.34027685,13.5648632 C3.09273288,13.5648632 2.86085625,13.4677251 2.68538204,13.2922498 L1.75160859,12.3584709 C1.42886139,12.0388552 1.38812631,11.5343639 1.65133762,11.1646125 L2.26863081,10.3060372 C2.0931566,9.98015459 1.94901707,9.63860455 1.83934569,9.28765406 L0.773966587,9.10591184 C0.325880668,9.03070817 0,8.64528933 0,8.19093378 L0,6.87173595 C0,6.41738041 0.325880668,6.03196156 0.773966587,5.95675789 L1.81427795,5.78128264 C1.92081586,5.42719866 2.05868845,5.08564863 2.23102919,4.75663255 L1.6043356,3.87612283 C1.34112429,3.50637142 1.38499284,3.00188009 1.70460657,2.68226447 L2.64151349,1.74848548 C2.81385423,1.57301024 3.04886433,1.47587215 3.2964083,1.47587215 C3.49068331,1.47587215 3.67869139,1.5354084 3.83536479,1.64821391 L4.69706848,2.26864424 C5.02294915,2.093169 5.36449715,1.94902862 5.71544556,1.83935659 L5.89718671,0.773971172 C5.97238994,0.325882599 6.3578065,0 6.81215935,0 L8.13134936,0 C8.58570222,0 8.97111878,0.325882599 9.04632201,0.773971172 L9.22179622,1.8142887 C9.58841197,1.92396073 9.94249385,2.07123459 10.2809084,2.24984333 L11.1520125,1.62941299 C11.3086859,1.51660748 11.4935605,1.45707123 11.6878355,1.45707123 C11.9353795,1.45707123 12.1672561,1.55420932 12.3427303,1.72968456 L13.2765038,2.66346355 C13.599251,2.98307917 13.639986,3.4875705 13.3767747,3.85732191 L12.7563481,4.72529768 C12.9286888,5.05118028 13.0696949,5.39273031 13.1793663,5.74681429 L14.2322115,5.92542302 Z" id="Shape"></path>
                        <path d="M7.65096795,3.97788792 C9.54093479,3.97788792 11.0761184,5.51307151 11.0761184,7.40303836 C11.0761184,9.2930052 9.54093479,10.8281888 7.65096795,10.8281888 C5.76100111,10.8281888 4.22581751,9.2930052 4.22581751,7.40303836 C4.22581751,5.51307151 5.76100111,3.97788792 7.65096795,3.97788792 Z" id="Shape"></path>
                    </g>
                </g>
            </g>
        </g>
    </g>
</svg>
